icons/tsconfig.svg

<svg width="16" height="16" viewBox="0 0 16 16" fill="none" xmlns="http://www.w3.org/2000/svg">
<path d="M8.21894 8.50006C8.21894 9.2078 8.79251 9.78126 9.50006 9.78126C10.2076 9.78126 10.7812 9.20762 10.7812 8.50006C10.7812 7.7925 10.2076 7.21892 9.50006 7.21892C8.79251 7.21892 8.21894 7.79256 8.21894 8.50006Z" fill="#0E8ADC"/>
<path fill-rule="evenodd" clip-rule="evenodd" d="M2 4C2 3.44772 2.44772 3 3 3H13C13.5523 3 14 3.44772 14 4V12C14 12.5523 13.5523 13 13 13H3C2.44772 13 2 12.5523 2 12V4ZM12.9751 8.89859C12.9573 9.02809 12.8356 9.13401 12.705 9.13401H12.0295C11.8988 9.13401 11.701 9.4024 11.6541 9.4981C11.6071 9.59386 11.6444 9.74794 11.7368 9.84033L12.2142 10.3177C12.3068 10.4103 12.3138 10.568 12.2301 10.6685L11.6684 11.2301C11.5679 11.3138 11.4101 11.3066 11.3176 11.2142L10.8403 10.7368C10.7479 10.6444 10.4212 10.6927 10.3193 10.7279C10.2174 10.763 10.134 10.8988 10.134 11.0295V11.705C10.134 11.8356 10.0281 11.9572 9.89858 11.975C9.89858 11.975 9.71663 12 9.50012 12C9.28361 12 9.10165 11.975 9.10165 11.975C8.97204 11.9572 8.86606 11.8356 8.86606 11.705V11.0295C8.86606 10.8989 8.5978 10.701 8.50203 10.6541C8.40627 10.6072 8.25226 10.6445 8.15981 10.7369L7.68242 11.2142C7.5899 11.3069 7.43223 11.3138 7.33174 11.2301L6.77005 10.6684C6.68628 10.5678 6.69343 10.41 6.78588 10.3176L7.26322 9.84015C7.35573 9.74776 7.30735 9.42112 7.2722 9.31922C7.2371 9.21725 7.10135 9.13401 6.97061 9.13401H6.2952C6.16441 9.13401 6.04283 9.02809 6.02505 8.89847C6.02505 8.89847 6 8.71657 6 8.50006C6 8.28366 6.02505 8.10165 6.02505 8.10165C6.04289 7.97215 6.16447 7.86617 6.2952 7.86617H6.9705C7.10123 7.86617 7.29902 7.59778 7.34598 7.50208C7.39295 7.40637 7.35561 7.25236 7.26316 7.1599L6.78583 6.6825C6.69331 6.58999 6.68622 6.43226 6.76999 6.33177L7.33174 5.77001C7.43217 5.68629 7.58996 5.69344 7.68242 5.7859L8.15981 6.2633C8.25226 6.35575 8.57895 6.30737 8.68086 6.27222C8.78276 6.23707 8.86606 6.10131 8.86606 5.97057V5.29515C8.86606 5.16441 8.9721 5.04283 9.10165 5.02505C9.10165 5.02505 9.28366 5 9.50012 5C9.71657 5 9.89858 5.02505 9.89858 5.02505C10.028 5.04283 10.134 5.16441 10.134 5.29515V5.97057C10.134 6.10131 10.4024 6.29916 10.4981 6.34606C10.5938 6.39297 10.7479 6.35575 10.8403 6.26324L11.3176 5.78584C11.4102 5.69332 11.5679 5.68623 11.6684 5.77001L12.2301 6.33183C12.3138 6.43231 12.3066 6.59011 12.2142 6.68256L11.7368 7.15996C11.6444 7.25236 11.6928 7.57911 11.7279 7.68096C11.763 7.78281 11.8988 7.86617 12.0296 7.86617H12.705C12.8356 7.86617 12.9571 7.97209 12.9751 8.10165C12.9751 8.10165 13 8.28366 13 8.50012C13 8.71657 12.9751 8.89859 12.9751 8.89859Z" fill="#0E8ADC"/>
</svg>

<svg xmlns="http://www.w3.org/2000/svg" width="16" height="16" fill="none"><path fill="#0E8ADC" d="M8.219 8.5a1.281 1.281 0 1 0 2.562 0 1.281 1.281 0 0 0-2.562 0Z"/><path fill="#0E8ADC" fill-rule="evenodd" d="M2 4a1 1 0 0 1 1-1h10a1 1 0 0 1 1 1v8a1 1 0 0 1-1 1H3a1 1 0 0 1-1-1V4Zm10.975 4.899a.281.281 0 0 1-.27.235h-.675c-.131 0-.329.268-.376.364-.047.096-.01.25.083.342l.477.478c.093.092.1.25.016.35l-.562.562a.266.266 0 0 1-.35-.016l-.478-.477c-.092-.093-.419-.044-.52-.01-.103.036-.186.172-.186.303v.675c0 .13-.106.252-.235.27 0 0-.182.025-.399.025-.216 0-.398-.025-.398-.025a.281.281 0 0 1-.236-.27v-.675c0-.131-.268-.329-.364-.376-.096-.047-.25-.01-.342.083l-.478.477a.266.266 0 0 1-.35.016l-.562-.562a.266.266 0 0 1 .016-.35l.477-.478c.093-.092.044-.419.01-.52-.036-.103-.172-.186-.302-.186h-.676a.281.281 0 0 1-.27-.236S6 8.717 6 8.5c0-.216.025-.398.025-.398a.281.281 0 0 1 .27-.236h.676c.13 0 .328-.268.375-.364.047-.096.01-.25-.083-.342l-.477-.478a.266.266 0 0 1-.016-.35l.562-.562a.266.266 0 0 1 .35.016l.478.477c.092.093.419.044.52.01.103-.036.186-.172.186-.302v-.676c0-.13.106-.252.236-.27 0 0 .182-.025.398-.025.217 0 .399.025.399.025.129.018.235.14.235.27v.676c0 .13.268.328.364.375.096.047.25.01.342-.083l.478-.477c.092-.093.25-.1.35-.016l.562.562c.084.1.077.258-.016.35l-.477.478c-.093.092-.044.42-.01.521.036.102.172.185.303.185h.675c.13 0 .252.106.27.236a3.291 3.291 0 0 0 0 .797Z" clip-rule="evenodd"/></svg>
